build/flags/Bahamas.svg

<svg xmlns="http://www.w3.org/2000/svg" fill="none" viewBox="0 0 28 28" focusable="false"><defs><linearGradient id="Bahamas_svg__c" x1="0" x2="0" y1="10.667" y2="17.333" gradientUnits="userSpaceOnUse"><stop offset="0" stop-color="#FCE469"/><stop offset="1" stop-color="#FADF52"/></linearGradient><filter id="Bahamas_svg__a"><feColorMatrix values="0 0 0 0 1 0 0 0 0 1 0 0 0 0 1 0 0 0 1 0"/></filter></defs><mask id="Bahamas_svg__b" width="28" height="20" x="0" y="4" maskUnits="userSpaceOnUse"><g filter="url(#Bahamas_svg__a)"><rect width="28" height="20" y="4" fill="#FFF" rx="3"/><rect width="28" height="20" y="4" stroke="#969696" stroke-opacity="0" stroke-width="0" rx="3"/></g></mask><path fill="none" d="M0 0H28V28H0z"/><rect width="28" height="20" y="4" fill="#FFF" rx="3"/><rect width="28" height="20" y="4" rx="3"/><g mask="url(#Bahamas_svg__b)"><path fill="#22B7D5" fill-rule="evenodd" d="M0 24L28 24L28 17.3333L0 17.3333L0 24Z"/><path d="M28 24L28 17.3333L0 17.3333L0 24L28 24Z"/><path fill="#22B7D5" fill-rule="evenodd" d="M0 10.6667L28 10.6667L28 4L0 4L0 10.6667Z"/><path d="M28 10.6667L28 4L0 4L0 10.6667L28 10.6667Z"/><path fill="url(#Bahamas_svg__c)" fill-rule="evenodd" d="M0 17.3334L28 17.3334L28 10.6667L0 10.6667L0 17.3334Z"/><path d="M28 17.3334L28 10.6667L0 10.6667L0 17.3334L28 17.3334Z"/><path fill="#262626" fill-rule="evenodd" d="M0 4L13.3333 14L0 24L0 4Z"/><path d="M13.3333 14L0 24L0 4L13.3333 14Z"/></g></svg>

<svg xmlns="http://www.w3.org/2000/svg" fill="none" viewBox="0 0 28 28" focusable="false"><defs><linearGradient id="Bahamas_svg__b" x1="0" x2="0" y1="10.667" y2="17.333" gradientUnits="userSpaceOnUse"><stop stop-color="#FCE569"/><stop offset="1" stop-color="#FADF52"/></linearGradient></defs><path fill="none" d="M0 0h28v28H0z"/><rect width="28" height="20" y="4" fill="#FFF" rx="3"/><rect width="28" height="20" y="4" rx="3"/><mask id="Bahamas_svg__a" width="28" height="20" x="0" y="4" mask-type="alpha" maskUnits="userSpaceOnUse"><rect width="28" height="20" y="4" fill="#FFF" rx="3"/><rect width="28" height="20" y="4" stroke="#979797" stroke-opacity="0" stroke-width="0" rx="3"/></mask><g mask="url(#Bahamas_svg__a)"><path fill="#22B7D5" fill-rule="evenodd" d="M0 24h28v-6.67H0z"/><path d="M28 24v-6.67H0V24z"/></g><g mask="url(#Bahamas_svg__a)"><path fill="#22B7D5" fill-rule="evenodd" d="M0 10.66h28V4H0z"/><path d="M28 10.66V4H0v6.66z"/></g><g mask="url(#Bahamas_svg__a)"><path fill="url(#Bahamas_svg__b)" fill-rule="evenodd" d="M0 17.33h28v-6.67H0z"/><path d="M28 17.33v-6.67H0v6.67z"/></g><g mask="url(#Bahamas_svg__a)"><path fill="#262626" fill-rule="evenodd" d="m0 4 13.33 10L0 24z"/><path d="M13.33 14 0 24V4z"/></g></svg>
